assets/Spider web/Flat/spider_web_flat.svg

<svg xmlns="http://www.w3.org/2000/svg" width="32" height="32" fill="none"><path fill="#998EA4" d="M29.93 16.29c.02-.03.05-.07.06-.11v-.01c.01-.02.01-.04.02-.06 0-.02.01-.04.01-.07v-.08c0-.02-.01-.04-.01-.06v-.01c0-.02-.01-.04-.02-.05v-.01l-.03-.06c-.01-.02-.02-.03-.03-.05l-.01-.01c-.01-.02-.03-.03-.04-.05a.218.218 0 0 0-.05-.04l-.01-.01c-.02-.01-.04-.02-.06-.04-2.58-1.39-4-3.3-4.2-5.67-.16-1.81.46-3.23.46-3.24v-.01c.01-.02.02-.04.02-.06v-.01c.01-.02.01-.04.01-.06v-.16a.26.26 0 0 0-.03-.11s0-.01-.01-.01a.219.219 0 0 0-.03-.05c-.01-.02-.03-.04-.04-.05v-.01l-.01-.01-.02-.02-.02-.02-.01-.01c-.02-.01-.03-.03-.05-.04 0 0-.01 0-.01-.01-.01 0-.03-.01-.04-.02 0 0-.01 0-.01-.01-.02-.01-.04-.02-.06-.02h-.01c-.02-.01-.04-.01-.06-.01H25.47c-.02 0-.04.01-.06.01-2.81.84-5.16.5-6.98-1.04-1.38-1.16-1.95-2.6-1.95-2.61l-.03-.06c-.01-.02-.02-.03-.03-.05l-.01-.01c-.01-.02-.03-.03-.04-.05l-.04-.04-.01-.01c-.03-.02-.07-.05-.11-.06h-.01c-.02-.01-.04-.01-.06-.02-.04-.01-.06-.02-.08-.02H15.97c-.02 0-.04.01-.06.01h-.01c-.02 0-.03.01-.05.02 0 0-.01 0-.01.01l-.06.03h-.01c-.02.01-.03.02-.05.03l-.01.01c-.02.01-.03.03-.05.04l-.04.04-.01.01c-.01.02-.02.04-.03.05-1.39 2.58-3.3 4-5.67 4.2C8.11 6.63 6.69 6 6.68 6h-.01l-.06-.03H6.6c-.02 0-.04-.01-.05-.01h-.16c-.04.01-.08.02-.12.04 0 0-.01 0-.01.01-.02 0-.04.01-.05.02-.03.02-.04.03-.06.04h-.01l-.01.01c0 .01 0 .02-.01.02-.01.01-.01.02-.02.02l-.01.01c-.01.02-.03.04-.04.06 0 0 0 .01-.01.01 0 .01-.01.03-.02.04 0 0 0 .01-.01.01 0 .02-.01.04-.02.07 0 .02-.01.04-.01.06V6.53c0 .02.01.04.01.06.84 2.81.5 5.16-1.04 6.98-1.16 1.38-2.59 1.94-2.62 1.95l-.06.03h-.01c-.02.01-.03.02-.05.03l-.01.01c-.02.01-.03.03-.05.04l-.01.01c-.01.01-.02.03-.04.04l-.01.01c-.02.03-.04.07-.06.11v.01c-.01.02-.01.04-.02.06 0 .02-.01.04-.01.06v.08c0 .02.01.04.01.06v.01c0 .02.01.04.02.05v.01l.03.06c.01.02.02.03.03.05l.01.01c.01.02.03.03.04.05.01.01.03.03.05.04l.01.01c.02.01.04.02.06.04 2.58 1.39 4 3.3 4.2 5.67.18 1.84-.44 3.26-.44 3.27v.01c-.01.02-.02.04-.02.06v.01c-.01.02-.01.04-.01.06v.16c.01.04.02.08.04.12 0 0 0 .01.01.01.01.02.02.04.03.05.01.02.03.04.04.05v.01l.01.01.02.02.02.02.01.01c.02.01.03.03.05.04 0 0 .01 0 .01.01.02.01.03.02.05.03 0 0 .01 0 .01.01.02.01.04.02.06.02h.01c.02.01.04.01.06.01H6.57c.02 0 .04-.01.06-.01 2.81-.85 5.16-.5 6.98 1.04 1.38 1.16 1.95 2.6 1.95 2.61l.03.06c.01.02.02.03.03.05l.01.01c.01.02.03.03.04.05l.04.04.01.01c.03.02.07.05.11.06h.01c.02.01.04.01.06.02.02 0 .04.01.06.01H16.08c.02 0 .03-.01.05-.01h.01a.37.37 0 0 0 .11-.05l.01-.01c.01-.01.03-.02.04-.03l.01-.01c.02-.01.03-.03.04-.04l.01-.01c.01-.01.02-.02.03-.04l.01-.01c.01-.02.02-.03.03-.05 1.39-2.58 3.3-4 5.67-4.2 1.8-.16 3.22.46 3.23.47.02.01.04.02.06.02h.01c.02.01.04.01.06.01H25.63c.04-.01.08-.02.12-.04 0 0 .01 0 .01-.01.02-.01.04-.02.05-.03.02-.01.04-.03.05-.04h.01l.01-.01.02-.02.02-.02.01-.01c.01-.02.03-.03.04-.05 0 0 0-.01.01-.01.01-.02.02-.03.03-.05 0 0 0-.01.01-.01.01-.02.02-.04.02-.06.01-.02.01-.04.01-.06V25.48c0-.02-.01-.04-.01-.06-.84-2.81-.5-5.16 1.04-6.98 1.16-1.38 2.6-1.95 2.61-1.95l.06-.03h.01c.02-.01.03-.02.05-.03l.01-.01c.02-.01.03-.03.05-.04l.04-.04c.01-.04.01-.04.02-.05Zm-2.13-.79h-4.15c-2.84-1.6-2.08-4.05-1.9-4.52l2.86-2.86c-.08.53-.11 1.15-.06 1.81.21 2.61 1.68 4.39 3.25 5.57Zm-16.3 3.86c-.07-.82-.39-1.9-1.41-2.86h4.73l-3.3 3.3c0-.14-.01-.29-.02-.44Zm5.02-9.23c.1.1.21.2.32.3.6.51 1.53 1.02 2.85 1.02h.17l-3.34 3.34v-4.66Zm-1 4.66-3.3-3.3c.14 0 .29 0 .44-.01.82-.07 1.9-.39 2.86-1.41v4.72Zm-.71.71h-4.66c.1-.1.2-.21.3-.32.53-.63 1.07-1.61 1.02-3.02l3.34 3.34Zm.71 1.71v4.67c-.1-.1-.21-.2-.32-.3-.6-.51-1.53-1.02-2.85-1.02h-.17l3.34-3.35Zm1 0 3.3 3.3c-.14 0-.29 0-.44.01-.82.07-1.9.39-2.86 1.41v-4.72Zm.71-.71h4.67c-.1.1-.2.21-.3.32-.53.63-1.07 1.61-1.02 3.02l-3.35-3.34Zm0-1 3.3-3.3c0 .14 0 .29.01.44.07.82.39 1.9 1.41 2.86h-4.72Zm.53-9.83c1.99 1.7 4.29 1.92 6.24 1.64l-2.94 2.94c-3.14.88-4.33-1.39-4.54-1.85V4.35c.32.43.73.89 1.24 1.32Zm-7.81 1.8c2.61-.21 4.39-1.68 5.57-3.25v4.15c-1.6 2.84-4.05 2.08-4.52 1.9L8.14 7.41c.53.07 1.14.11 1.81.06Zm-4.26 6.79c1.7-1.99 1.92-4.29 1.64-6.24l2.94 2.94c.88 3.13-1.39 4.33-1.85 4.54H4.37c.43-.32.89-.73 1.32-1.24ZM4.24 16.5h4.15c2.84 1.6 2.08 4.05 1.9 4.52l-2.86 2.86c.08-.53.11-1.15.06-1.81-.21-2.61-1.68-4.39-3.25-5.57Zm10.04 9.83c-1.54-1.31-3.27-1.74-4.87-1.74-.47 0-.93.04-1.37.1l2.94-2.94c3.14-.88 4.33 1.39 4.54 1.85v4.05c-.32-.43-.73-.89-1.24-1.32Zm7.81-1.8c-2.61.21-4.39 1.68-5.57 3.25v-4.15c1.6-2.84 4.05-2.08 4.52-1.9l2.86 2.86c-.53-.07-1.14-.11-1.81-.06Zm4.26-6.79c-1.7 1.99-1.92 4.29-1.64 6.24l-2.94-2.94c-.88-3.14 1.39-4.33 1.85-4.54h4.05c-.43.32-.89.73-1.32 1.24Z"/></svg>

<svg width="32" height="32" viewBox="0 0 32 32" fill="none" xmlns="http://www.w3.org/2000/svg">
<path d="M29.93 16.29C29.95 16.26 29.98 16.22 29.99 16.18V16.17C30 16.15 30 16.13 30.01 16.11C30.01 16.09 30.02 16.07 30.02 16.04C30.02 16.04 30.02 16.04 30.02 16.03V16.02C30.02 16.01 30.02 16 30.02 16C30.02 15.99 30.02 15.98 30.02 15.97V15.96C30.02 15.94 30.01 15.92 30.01 15.9V15.89C30.01 15.87 30 15.85 29.99 15.84V15.83C29.98 15.81 29.97 15.79 29.96 15.77C29.95 15.75 29.94 15.74 29.93 15.72L29.92 15.71C29.91 15.69 29.89 15.68 29.88 15.66C29.87 15.65 29.85 15.63 29.83 15.62L29.82 15.61C29.8 15.6 29.78 15.59 29.76 15.57C27.18 14.18 25.76 12.27 25.56 9.9C25.4 8.09 26.02 6.67 26.02 6.66C26.02 6.66 26.02 6.66 26.02 6.65C26.03 6.63 26.04 6.61 26.04 6.59C26.04 6.59 26.04 6.59 26.04 6.58C26.05 6.56 26.05 6.54 26.05 6.52C26.05 6.51 26.05 6.51 26.05 6.5C26.05 6.48 26.05 6.46 26.05 6.44C26.05 6.44 26.05 6.44 26.05 6.43C26.05 6.41 26.05 6.39 26.05 6.37V6.36C26.05 6.33 26.04 6.29 26.02 6.25C26.02 6.25 26.02 6.24 26.01 6.24C26 6.22 25.99 6.2 25.98 6.19C25.97 6.17 25.95 6.15 25.94 6.14C25.94 6.14 25.94 6.14 25.94 6.13C25.94 6.13 25.94 6.13 25.93 6.12C25.92 6.11 25.92 6.11 25.91 6.1C25.9 6.09 25.9 6.09 25.89 6.08L25.88 6.07C25.86 6.06 25.85 6.04 25.83 6.03C25.83 6.03 25.82 6.03 25.82 6.02C25.81 6.02 25.79 6.01 25.78 6C25.78 6 25.77 6 25.77 5.99C25.75 5.98 25.73 5.97 25.71 5.97C25.71 5.97 25.71 5.97 25.7 5.97C25.68 5.96 25.66 5.96 25.64 5.96C25.63 5.96 25.63 5.96 25.62 5.96C25.6 5.96 25.58 5.96 25.56 5.96C25.56 5.96 25.56 5.96 25.55 5.96C25.53 5.96 25.51 5.96 25.49 5.96C25.48 5.96 25.48 5.96 25.47 5.96C25.45 5.96 25.43 5.97 25.41 5.97C22.6 6.81 20.25 6.47 18.43 4.93C17.05 3.77 16.48 2.33 16.48 2.32C16.47 2.3 16.46 2.28 16.45 2.26C16.44 2.24 16.43 2.23 16.42 2.21L16.41 2.2C16.4 2.18 16.38 2.17 16.37 2.15C16.36 2.14 16.34 2.12 16.33 2.11L16.32 2.1C16.29 2.08 16.25 2.05 16.21 2.04H16.2C16.18 2.03 16.16 2.03 16.14 2.02C16.1 2.01 16.08 2 16.06 2C16.06 2 16.06 2 16.05 2H16.04C16.03 2 16.03 2 16.02 2C16.01 2 16 2 15.99 2C15.98 2 15.98 2 15.97 2C15.95 2 15.93 2.01 15.91 2.01H15.9C15.88 2.01 15.87 2.02 15.85 2.03C15.85 2.03 15.84 2.03 15.84 2.04C15.82 2.05 15.8 2.06 15.78 2.07C15.78 2.07 15.78 2.07 15.77 2.07C15.75 2.08 15.74 2.09 15.72 2.1L15.71 2.11C15.69 2.12 15.68 2.14 15.66 2.15C15.65 2.16 15.63 2.18 15.62 2.19L15.61 2.2C15.6 2.22 15.59 2.24 15.58 2.25C14.19 4.83 12.28 6.25 9.91 6.45C8.11 6.63 6.69 6 6.68 6C6.68 6 6.68 6 6.67 6C6.65 5.99 6.63 5.98 6.61 5.97C6.61 5.97 6.61 5.97 6.6 5.97C6.58 5.97 6.56 5.96 6.55 5.96C6.54 5.96 6.54 5.96 6.53 5.96C6.51 5.96 6.49 5.96 6.47 5.96H6.46C6.44 5.96 6.42 5.96 6.41 5.96C6.4 5.96 6.4 5.96 6.39 5.96C6.35 5.97 6.31 5.98 6.27 6C6.27 6 6.26 6 6.26 6.01C6.24 6.01 6.22 6.02 6.21 6.03C6.18 6.05 6.17 6.06 6.15 6.07C6.15 6.07 6.15 6.07 6.14 6.07C6.14 6.07 6.14 6.07 6.13 6.08C6.13 6.09 6.13 6.1 6.12 6.1C6.11 6.11 6.11 6.12 6.1 6.12L6.09 6.13C6.08 6.15 6.06 6.17 6.05 6.19C6.05 6.19 6.05 6.2 6.04 6.2C6.04 6.21 6.03 6.23 6.02 6.24C6.02 6.24 6.02 6.25 6.01 6.25C6.01 6.27 6 6.29 5.99 6.32C5.99 6.34 5.98 6.36 5.98 6.38C5.98 6.39 5.98 6.39 5.98 6.4C5.98 6.42 5.98 6.44 5.98 6.46C5.98 6.48 5.98 6.5 5.98 6.52V6.53C5.98 6.55 5.99 6.57 5.99 6.59C6.83 9.4 6.49 11.75 4.95 13.57C3.79 14.95 2.36 15.51 2.33 15.52C2.31 15.53 2.29 15.54 2.27 15.55C2.27 15.55 2.27 15.55 2.26 15.55C2.24 15.56 2.23 15.57 2.21 15.58L2.2 15.59C2.18 15.6 2.17 15.62 2.15 15.63C2.15 15.63 2.15 15.63 2.14 15.64C2.13 15.65 2.12 15.67 2.1 15.68L2.09 15.69C2.07 15.72 2.05 15.76 2.03 15.8V15.81C2.02 15.83 2.02 15.85 2.01 15.87C2.01 15.89 2 15.91 2 15.93C2 15.93 2 15.93 2 15.94V15.95C2 15.96 2 15.97 2 15.97C2 15.98 2 15.99 2 16V16.01C2 16.03 2.01 16.05 2.01 16.07V16.08C2.01 16.1 2.02 16.12 2.03 16.13V16.14C2.04 16.16 2.05 16.18 2.06 16.2C2.07 16.22 2.08 16.23 2.09 16.25L2.1 16.26C2.11 16.28 2.13 16.29 2.14 16.31C2.15 16.32 2.17 16.34 2.19 16.35L2.2 16.36C2.22 16.37 2.24 16.38 2.26 16.4C4.84 17.79 6.26 19.7 6.46 22.07C6.64 23.91 6.02 25.33 6.02 25.34C6.02 25.34 6.02 25.34 6.02 25.35C6.01 25.37 6 25.39 6 25.41C6 25.41 6 25.41 6 25.42C5.99 25.44 5.99 25.46 5.99 25.48C5.99 25.49 5.99 25.49 5.99 25.5C5.99 25.52 5.99 25.54 5.99 25.56C5.99 25.56 5.99 25.56 5.99 25.57C5.99 25.59 5.99 25.61 5.99 25.63V25.64C6 25.68 6.01 25.72 6.03 25.76C6.03 25.76 6.03 25.77 6.04 25.77C6.05 25.79 6.06 25.81 6.07 25.82C6.08 25.84 6.1 25.86 6.11 25.87C6.11 25.87 6.11 25.87 6.11 25.88C6.11 25.88 6.11 25.88 6.12 25.89C6.13 25.9 6.13 25.9 6.14 25.91C6.15 25.92 6.15 25.92 6.16 25.93L6.17 25.94C6.19 25.95 6.2 25.97 6.22 25.98C6.22 25.98 6.23 25.98 6.23 25.99C6.25 26 6.26 26.01 6.28 26.02C6.28 26.02 6.29 26.02 6.29 26.03C6.31 26.04 6.33 26.05 6.35 26.05C6.35 26.05 6.35 26.05 6.36 26.05C6.38 26.06 6.4 26.06 6.42 26.06C6.43 26.06 6.43 26.06 6.44 26.06C6.46 26.06 6.48 26.06 6.5 26.06C6.52 26.06 6.54 26.06 6.56 26.06C6.57 26.06 6.57 26.06 6.57 26.06C6.59 26.06 6.61 26.05 6.63 26.05C9.44 25.2 11.79 25.55 13.61 27.09C14.99 28.25 15.56 29.69 15.56 29.7C15.57 29.72 15.58 29.74 15.59 29.76C15.6 29.78 15.61 29.79 15.62 29.81L15.63 29.82C15.64 29.84 15.66 29.85 15.67 29.87C15.68 29.88 15.7 29.9 15.71 29.91L15.72 29.92C15.75 29.94 15.79 29.97 15.83 29.98H15.84C15.86 29.99 15.88 29.99 15.9 30C15.92 30 15.94 30.01 15.96 30.01C15.96 30.01 15.96 30.01 15.97 30.01C15.98 30.01 15.99 30.01 16 30.01C16.02 30.01 16.04 30.01 16.06 30.01C16.07 30.01 16.07 30.01 16.08 30.01C16.1 30.01 16.11 30 16.13 30H16.14C16.18 29.99 16.22 29.97 16.25 29.95L16.26 29.94C16.27 29.93 16.29 29.92 16.3 29.91L16.31 29.9C16.33 29.89 16.34 29.87 16.35 29.86L16.36 29.85C16.37 29.84 16.38 29.83 16.39 29.81L16.4 29.8C16.41 29.78 16.42 29.77 16.43 29.75C17.82 27.17 19.73 25.75 22.1 25.55C23.9 25.39 25.32 26.01 25.33 26.02C25.35 26.03 25.37 26.04 25.39 26.04C25.39 26.04 25.39 26.04 25.4 26.04C25.42 26.05 25.44 26.05 25.46 26.05C25.47 26.05 25.47 26.05 25.48 26.05C25.5 26.05 25.52 26.05 25.54 26.05C25.54 26.05 25.54 26.05 25.55 26.05C25.57 26.05 25.59 26.05 25.61 26.05C25.62 26.05 25.62 26.05 25.63 26.05C25.67 26.04 25.71 26.03 25.75 26.01C25.75 26.01 25.76 26.01 25.76 26C25.78 25.99 25.8 25.98 25.81 25.97C25.83 25.96 25.85 25.94 25.86 25.93C25.86 25.93 25.86 25.93 25.87 25.93C25.87 25.93 25.87 25.93 25.88 25.92C25.89 25.91 25.89 25.91 25.9 25.9C25.91 25.89 25.91 25.89 25.92 25.88L25.93 25.87C25.94 25.85 25.96 25.84 25.97 25.82C25.97 25.82 25.97 25.81 25.98 25.81C25.99 25.79 26 25.78 26.01 25.76C26.01 25.76 26.01 25.75 26.02 25.75C26.03 25.73 26.04 25.71 26.04 25.69C26.05 25.67 26.05 25.65 26.05 25.63C26.05 25.62 26.05 25.62 26.05 25.61C26.05 25.59 26.05 25.57 26.05 25.55C26.05 25.53 26.05 25.51 26.05 25.49V25.48C26.05 25.46 26.04 25.44 26.04 25.42C25.2 22.61 25.54 20.26 27.08 18.44C28.24 17.06 29.68 16.49 29.69 16.49C29.71 16.48 29.73 16.47 29.75 16.46C29.75 16.46 29.75 16.46 29.76 16.46C29.78 16.45 29.79 16.44 29.81 16.43L29.82 16.42C29.84 16.41 29.85 16.39 29.87 16.38C29.88 16.37 29.9 16.35 29.91 16.34C29.92 16.3 29.92 16.3 29.93 16.29ZM27.8 15.5H23.65C20.81 13.9 21.57 11.45 21.75 10.98L24.61 8.12C24.53 8.65 24.5 9.27 24.55 9.93C24.76 12.54 26.23 14.32 27.8 15.5ZM11.5 19.36C11.43 18.54 11.11 17.46 10.09 16.5H14.82L11.52 19.8C11.52 19.66 11.51 19.51 11.5 19.36ZM16.52 10.13C16.62 10.23 16.73 10.33 16.84 10.43C17.44 10.94 18.37 11.45 19.69 11.45C19.75 11.45 19.8 11.45 19.86 11.45L16.52 14.79V10.13V10.13ZM15.52 14.79L12.22 11.49C12.36 11.49 12.51 11.49 12.66 11.48C13.48 11.41 14.56 11.09 15.52 10.07V14.79V14.79ZM14.81 15.5H10.15C10.25 15.4 10.35 15.29 10.45 15.18C10.98 14.55 11.52 13.57 11.47 12.16L14.81 15.5ZM15.52 17.21V21.88C15.42 21.78 15.31 21.68 15.2 21.58C14.6 21.07 13.67 20.56 12.35 20.56C12.29 20.56 12.24 20.56 12.18 20.56L15.52 17.21ZM16.52 17.21L19.82 20.51C19.68 20.51 19.53 20.51 19.38 20.52C18.56 20.59 17.48 20.91 16.52 21.93V17.21ZM17.23 16.5H21.9C21.8 16.6 21.7 16.71 21.6 16.82C21.07 17.45 20.53 18.43 20.58 19.84L17.23 16.5ZM17.23 15.5L20.53 12.2C20.53 12.34 20.53 12.49 20.54 12.64C20.61 13.46 20.93 14.54 21.95 15.5H17.23V15.5ZM17.76 5.67C19.75 7.37 22.05 7.59 24 7.31L21.06 10.25C17.92 11.13 16.73 8.86 16.52 8.4V4.35C16.84 4.78 17.25 5.24 17.76 5.67ZM9.95 7.47C12.56 7.26 14.34 5.79 15.52 4.22V8.37C13.92 11.21 11.47 10.45 11 10.27L8.14 7.41C8.67 7.48 9.28 7.52 9.95 7.47ZM5.69 14.26C7.39 12.27 7.61 9.97 7.33 8.02L10.27 10.96C11.15 14.09 8.88 15.29 8.42 15.5H4.37C4.8 15.18 5.26 14.77 5.69 14.26ZM4.24 16.5H8.39C11.23 18.1 10.47 20.55 10.29 21.02L7.43 23.88C7.51 23.35 7.54 22.73 7.49 22.07C7.28 19.46 5.81 17.68 4.24 16.5ZM14.28 26.33C12.74 25.02 11.01 24.59 9.41 24.59C8.94 24.59 8.48 24.63 8.04 24.69L10.98 21.75C14.12 20.87 15.31 23.14 15.52 23.6V27.65C15.2 27.22 14.79 26.76 14.28 26.33ZM22.09 24.53C19.48 24.74 17.7 26.21 16.52 27.78V23.63C18.12 20.79 20.57 21.55 21.04 21.73L23.9 24.59C23.37 24.52 22.76 24.48 22.09 24.53ZM26.35 17.74C24.65 19.73 24.43 22.03 24.71 23.98L21.77 21.04C20.89 17.9 23.16 16.71 23.62 16.5H27.67C27.24 16.82 26.78 17.23 26.35 17.74Z" fill="#998EA4"/>
</svg>
